packages/symbols/svgs/outline/theater-outline.svg

<svg width="24" height="24" viewBox="0 0 24 24" fill="none" xmlns="http://www.w3.org/2000/svg">
<g clip-path="url(#clip0_1279_4263)">
<path fill-rule="evenodd" clip-rule="evenodd" d="M17 12C17 11.4477 17.4477 11 18 11H19C19.5523 11 20 11.4477 20 12C20 12.5523 19.5523 13 19 13H18C17.4477 13 17 12.5523 17 12Z" fill="black"/>
<path fill-rule="evenodd" clip-rule="evenodd" d="M4 8C4 7.44772 4.44772 7 5 7H6C6.55228 7 7 7.44772 7 8C7 8.55228 6.55228 9 6 9H5C4.44772 9 4 8.55228 4 8Z" fill="black"/>
<path fill-rule="evenodd" clip-rule="evenodd" d="M9 8C9 7.44772 9.44772 7 10 7H11C11.5523 7 12 7.44772 12 8C12 8.55228 11.5523 9 11 9H10C9.44772 9 9 8.55228 9 8Z" fill="black"/>
<path fill-rule="evenodd" clip-rule="evenodd" d="M17.0049 5.00674C17.0591 4.45713 17.5487 4.05557 18.0983 4.10983C19.8844 4.28618 21.6426 4.6786 23.3343 5.2785C23.7333 5.42003 24 5.79756 24 6.22099V16C23.9987 17.5223 23.5631 19.0135 22.7443 20.2969C21.9256 21.5803 20.7576 22.6034 19.3776 23.2461C17.9976 23.8889 16.4629 24.1245 14.9536 23.9254C13.4444 23.7262 12.0232 23.1006 10.8572 22.122C10.4341 21.7669 10.379 21.1362 10.734 20.7131C11.0891 20.2901 11.7198 20.235 12.1429 20.59C13.0174 21.324 14.0833 21.7932 15.2152 21.9425C16.3471 22.0919 17.4982 21.9152 18.5332 21.4331C19.5682 20.9511 20.4442 20.1837 21.0583 19.2212C21.6724 18.2587 21.9991 17.1409 22 15.9992V6.94034C20.6673 6.5193 19.2939 6.2376 17.9018 6.10015C17.3522 6.04589 16.9506 5.55635 17.0049 5.00674Z" fill="black"/>
<path fill-rule="evenodd" clip-rule="evenodd" d="M2 2.93713V12C2 13.5913 2.63214 15.1174 3.75736 16.2426C4.88258 17.3679 6.4087 18 8 18C9.5913 18 11.1174 17.3679 12.2426 16.2426C13.3679 15.1174 14 13.5913 14 12V2.93713C10.0979 1.68762 5.90213 1.68762 2 2.93713ZM0.661443 1.28006C5.40496 -0.426685 10.595 -0.426685 15.3386 1.28006C15.7354 1.42284 16 1.79925 16 2.221V12C16 14.1217 15.1571 16.1566 13.6569 17.6569C12.1566 19.1571 10.1217 20 8 20C5.87827 20 3.84344 19.1571 2.34315 17.6569C0.842855 16.1566 0 14.1217 0 12V2.221C0 1.79925 0.264601 1.42284 0.661443 1.28006Z" fill="black"/>
<path d="M11 13C11 13.7956 10.6839 14.5587 10.1213 15.1213C9.55871 15.6839 8.79565 16 8 16C7.20435 16 6.44129 15.6839 5.87868 15.1213C5.31607 14.5587 5 13.7956 5 13H11Z" fill="black"/>
<path fill-rule="evenodd" clip-rule="evenodd" d="M15.999 17C16.5247 16.9995 17.0454 17.1028 17.5311 17.3041C18.0167 17.5054 18.4579 17.8006 18.8291 18.1729C19.2191 18.564 19.2182 19.1971 18.8271 19.5871C18.436 19.9771 17.8029 19.9762 17.4129 19.5851C17.2277 19.3994 17.0076 19.2521 16.7653 19.1517C16.5231 19.0513 16.2633 18.9997 16.001 19C15.4487 19.0006 15.0006 18.5533 15 18.001C14.9994 17.4488 15.4467 17.0006 15.999 17Z" fill="black"/>
</g>
<defs>
<clipPath id="clip0_1279_4263">
<rect width="24" height="24" fill="white"/>
</clipPath>
</defs>
</svg>

<svg width="24" height="24" viewBox="0 0 24 24" xmlns="http://www.w3.org/2000/svg"><g clip-path="url(#a)"><path fill-rule="evenodd" clip-rule="evenodd" d="M17 12a1 1 0 0 1 1-1h1a1 1 0 1 1 0 2h-1a1 1 0 0 1-1-1ZM4 8a1 1 0 0 1 1-1h1a1 1 0 0 1 0 2H5a1 1 0 0 1-1-1Zm5 0a1 1 0 0 1 1-1h1a1 1 0 1 1 0 2h-1a1 1 0 0 1-1-1Z"/><path fill-rule="evenodd" clip-rule="evenodd" d="M17.005 5.007a1 1 0 0 1 1.093-.897 22.19 22.19 0 0 1 5.236 1.168 1 1 0 0 1 .666.943V16a8.003 8.003 0 0 1-9.046 7.925 8 8 0 0 1-4.097-1.803 1 1 0 1 1 1.286-1.532A6 6 0 0 0 22 16V6.94a20.189 20.189 0 0 0-4.098-.84 1 1 0 0 1-.897-1.093Z"/><path fill-rule="evenodd" clip-rule="evenodd" d="M2 2.937V12a6 6 0 1 0 12 0V2.937a19.676 19.676 0 0 0-12 0ZM.661 1.28a21.676 21.676 0 0 1 14.678 0 1 1 0 0 1 .661.941V12a8 8 0 0 1-16 0V2.221a1 1 0 0 1 .661-.94Z"/><path d="M11 13a3 3 0 0 1-6 0h6Z"/><path fill-rule="evenodd" clip-rule="evenodd" d="M15.999 17a3.992 3.992 0 0 1 2.83 1.173 1 1 0 1 1-1.416 1.412A1.991 1.991 0 0 0 16 19a1 1 0 1 1-.002-2Z"/></g><defs><clipPath id="a"><path fill="#fff" d="M0 0h24v24H0z"/></clipPath></defs></svg>
